!!!COM: Beethoven
!!!OTL: 7 Variations on a Quartet by Winter 
!!!Variation: Theme c
**function	**harm	**kern	**kern
*M2/4	*M2/4	*staff2	*staff1
*F:	*F:	*clefG2	*clefG2
*tb16	*	*k[b-]	*k[b-]
*	*	*M2/4	*M2/4
*	*	*F:	*F:
4T	4I	4r	4cc
=	=	=21	=21
2T	2I	8F 8c	(8aL
.	.	8r	8fJ
.	.	8F 8c	8aL 8ff
.	.	8r	8ccJ)
=	=	=22	=22
4T	4V65	8E 8c	(4g 4b-
.	.	8r	.
4T	4I	8F 8c	4f) 4a
.	.	8r	.
=	=	=23	=23
2T	2V7	8B-L 8c	8eL 8g
.	.	8AJ 8c	8fJ
.	.	8EL 8c	8gL 8b-
.	.	8FJ 8c	8fJ 8a
=	=	=24	=24
4T	4V	4C 4c	4e 4g
4T	4I	4r	4cc
=	=	=25	=25
2T	2I	2F 2c	8aL 8cc
.	.	.	8aJ
.	.	.	(16ffLL
.	.	.	16ee
.	.	.	16dd
.	.	.	16ccJJ)
=	=	=26	=26
4T	4V65	(4E 4c	(4g 4b-
4T	4I	4F) 4c	4f) 4a
=	=	=27	=27
2D	2V7/V	2G 2B	8gL
.	.	.	8ffJ
.	.	.	8eeL
.	.	.	8fJ 8dd
=	=	=28	=28
*	*	*^	*
4D	4V	8EL	4C	4e 4cc
.	.	8GJ	.	.
*	*	*v	*v	*
*-	*-	*-	*-
